X: 1
T: Me Mother's
M: 6/8
L: 1/8
R: jig
K: Gmaj
|:B/c/|d2G F2A| G2B AcA| BdB c2e|d2g faf|
g2G F2A| G2B AcA| BdB c2e| def g2:|
|:d| g2b f2a| efg d2B| c2e B2d| ABA B2d|
gbg faf| ege dcB| cde d2B| g3 G2:|
|: B/c/| d2g e2g| d2g e3| ded B2G| A2g FED|
d2g e2g| d2g e3| ded dba|gfe d2:|
